public/icons/star-full.svg

<svg width="19" height="18" viewBox="0 0 19 18" fill="none" xmlns="http://www.w3.org/2000/svg">
<path d="M9.49999 13.3125L4.61383 15.7462L5.5472 10.5915L1.58887 6.94125L7.05137 6.19125L9.49445 1.5015L11.9375 6.19125L17.4 6.94125L13.4417 10.5915L14.3751 15.7462L9.49999 13.3125Z" fill="#ECD402" stroke="#ECD402" stroke-width="2" stroke-linecap="round" stroke-linejoin="round"/>
</svg>

<svg width="19" height="18" fill="none" xmlns="http://www.w3.org/2000/svg"><path d="m9.5 13.31-4.89 2.44.94-5.16-3.96-3.65 5.46-.75L9.5 1.5l2.45 4.7 5.46.74-3.96 3.65.94 5.16L9.5 13.3Z" fill="#ECD402" stroke="#ECD402" stroke-width="2" stroke-linecap="round" stroke-linejoin="round"/></svg>
